brandFactory_export/2.Regular/Target _2Regular.svg

<?xml version="1.0" encoding="UTF-8"?>
<svg width="24px" height="24px" viewBox="0 0 24 24" version="1.1" xmlns="http://www.w3.org/2000/svg" xmlns:xlink="http://www.w3.org/1999/xlink">
    <title>2.Regular/Target _2Regular</title>
    <g id="Symbols" stroke="none" stroke-width="1" fill="none" fill-rule="evenodd">
        <g id="2.Regular/Target-_2Regular" fill="#5CB615" fill-rule="nonzero">
            <path d="M12.5680672,19.6470588 C14.5983193,19.5159664 19.2840336,18.5411765 19.6705882,12.5344538 L19.1226891,12.5344538 C18.7226891,12.5210084 18.4134454,12.1848739 18.4268908,11.7848739 C18.4403361,11.405042 18.7428571,11.102521 19.1226891,11.0890756 L19.6773109,11.0890756 C19.3478992,5.00840336 14.6453782,3.96638655 12.5680672,3.81512605 L12.5680672,4.53781513 C12.5478992,4.93781513 12.2084034,5.24369748 11.8084034,5.22016807 C11.4386555,5.2 11.1428571,4.90420168 11.1260504,4.53781513 L11.1260504,3.78823529 C9.24705882,3.84537815 4.16470588,4.61848739 3.85546218,11.092437 L4.57142857,11.092437 C4.97142857,11.1058824 5.28067227,11.4420168 5.26722689,11.8420168 C5.25378151,12.2218487 4.9512605,12.5243697 4.57142857,12.5378151 L3.86554622,12.5378151 C4.28235294,18.7428571 9.20336134,19.5798319 11.1260504,19.6605042 L11.1260504,19.0890756 C11.1462185,18.6890756 11.4857143,18.3831933 11.8857143,18.4067227 C12.2554622,18.4268908 12.5512605,18.7226891 12.5680672,19.0890756 L12.5680672,19.6470588 Z M22.9714286,11.0890756 C23.3714286,11.102521 23.6806723,11.4386555 23.6672269,11.8386555 C23.6537815,12.2184874 23.3512605,12.5210084 22.9714286,12.5344538 L21.1092437,12.5344538 C20.6957983,19.9462185 14.594958,20.9680672 12.5680672,21.092437 L12.5680672,22.9378151 C12.5478992,23.3378151 12.2084034,23.6436975 11.8084034,23.6201681 C11.4386555,23.6 11.1428571,23.3042017 11.1260504,22.9378151 L11.1260504,21.102521 C9.29411765,21.0285714 2.87394958,20.194958 2.42689076,12.5344538 L0.719327731,12.5344538 C0.319327731,12.5210084 0.0100840336,12.1848739 0.0235294118,11.7848739 C0.0369747899,11.405042 0.339495798,11.102521 0.719327731,11.0890756 L2.41008403,11.0890756 C2.74285714,3.12941176 9.37142857,2.39327731 11.1226891,2.34285714 L11.1226891,0.685714286 C11.1428571,0.285714286 11.4823529,-0.0201680672 11.8823529,0.00336134454 C12.2521008,0.0235294118 12.5478992,0.319327731 12.5647059,0.685714286 L12.5647059,2.3697479 C14.6386555,2.51428571 20.7630252,3.60336134 21.1159664,11.092437 L22.9714286,11.0890756 L22.9714286,11.0890756 Z M10.7630252,8.15798319 C10.5176471,8.39663866 10.4638655,8.84705882 10.4638655,9.17983193 C10.4638655,9.51596639 10.5142857,9.96302521 10.7596639,10.1983193 C11.0016807,10.4302521 11.4386555,10.4806723 11.7613445,10.4806723 C12.087395,10.4806723 12.5243697,10.4302521 12.7697479,10.1983193 C12.9680672,10.0067227 13.0689076,9.66386555 13.0689076,9.17983193 C13.0689076,8.69243697 12.9680672,8.34957983 12.7663866,8.15798319 C12.5243697,7.92268908 12.0840336,7.87226891 11.7613445,7.87226891 C11.4386555,7.87226891 11.005042,7.92268908 10.7630252,8.15798319 L10.7630252,8.15798319 Z M11.7613445,11.7310924 C10.9546218,11.7310924 10.3260504,11.5193277 9.89243697,11.102521 C9.43865546,10.6655462 9.21008403,10.0201681 9.21008403,9.17983193 C9.21008403,8.3394958 9.43865546,7.69411765 9.89243697,7.25714286 C10.3260504,6.83697479 10.9579832,6.62184874 11.7613445,6.62184874 C12.5680672,6.62184874 13.1966387,6.83697479 13.6369748,7.25714286 C14.0907563,7.69411765 14.3226891,8.34285714 14.3226891,9.17983193 C14.3226891,10.0201681 14.0941176,10.6655462 13.6369748,11.102521 C13.2,11.5193277 12.5680672,11.7310924 11.7613445,11.7310924 Z M8.48403361,15.5764706 L15.0487395,15.5764706 C15.0352941,15.2537815 14.9512605,14.8470588 14.6655462,14.5512605 C14.3092437,14.1815126 13.7378151,14.1008403 13.3210084,14.1008403 L10.2084034,14.1008403 C9.79159664,14.1008403 9.22352941,14.1781513 8.86722689,14.5478992 C8.58151261,14.8436975 8.49747899,15.2537815 8.48403361,15.5764706 L8.48403361,15.5764706 Z M13.3176471,12.8504202 C14.2655462,12.8504202 15.0420168,13.1361345 15.5663866,13.6806723 C16.0470588,14.1815126 16.302521,14.8739496 16.302521,15.687395 L16.302521,16.5378151 C16.302521,16.6991597 16.1747899,16.8268908 16.0134454,16.8268908 L7.51932773,16.8268908 C7.35798319,16.8268908 7.2302521,16.6957983 7.2302521,16.5378151 L7.2302521,15.687395 C7.2302521,14.8739496 7.48235294,14.1815126 7.95966387,13.6806723 C8.48403361,13.1361345 9.2605042,12.8470588 10.205042,12.8470588 L13.3176471,12.8504202 L13.3176471,12.8504202 Z" id="Target-_2Regular"></path>
        </g>
    </g>
</svg>

<svg width="24" height="24" viewBox="0 0 24 24" xmlns="http://www.w3.org/2000/svg"><path d="M12.568 19.647c2.03-.131 6.716-1.106 7.103-7.113h-.548a.722.722 0 010-1.445h.554c-.33-6.08-5.032-7.123-7.109-7.274v.723c-.02.4-.36.706-.76.682a.72.72 0 01-.682-.682v-.75c-1.879.057-6.961.83-7.27 7.304h.715a.722.722 0 010 1.446h-.705c.416 6.205 5.337 7.042 7.26 7.123v-.572c.02-.4.36-.706.76-.682a.72.72 0 01.682.682v.558zm10.403-8.558a.722.722 0 010 1.445H21.11c-.413 7.412-6.514 8.434-8.54 8.558v1.846c-.021.4-.36.706-.76.682a.72.72 0 01-.683-.682v-1.835c-1.832-.074-8.252-.908-8.7-8.569H.72a.722.722 0 010-1.445H2.41c.333-7.96 6.961-8.696 8.713-8.746V.686c.02-.4.36-.706.76-.683a.72.72 0 01.682.683V2.37c2.074.144 8.198 1.233 8.551 8.722l1.855-.003zM10.763 8.158c-.245.239-.3.69-.3 1.022 0 .336.051.783.297 1.018.242.232.679.283 1.001.283.326 0 .763-.05 1.009-.283.198-.191.299-.534.299-1.018 0-.488-.1-.83-.303-1.022-.242-.235-.682-.286-1.005-.286-.322 0-.756.05-.998.286zm.998 3.573c-.806 0-1.435-.212-1.869-.628-.453-.437-.682-1.083-.682-1.923 0-.84.229-1.486.682-1.923.434-.42 1.066-.635 1.87-.635.806 0 1.435.215 1.875.635.454.437.686 1.086.686 1.923 0 .84-.229 1.486-.686 1.923-.437.416-1.069.628-1.876.628zm-3.277 3.845h6.565c-.014-.322-.098-.729-.383-1.025-.357-.37-.928-.45-1.345-.45h-3.113c-.416 0-.984.077-1.34.447-.286.296-.37.706-.384 1.028zm4.834-2.726c.948 0 1.724.286 2.248.83.481.502.737 1.194.737 2.007v.85c0 .162-.128.29-.29.29H7.52a.29.29 0 01-.289-.29v-.85c0-.813.252-1.505.73-2.006.524-.545 1.3-.834 2.245-.834l3.113.003z" fill="#5CB615" fill-rule="nonzero"/></svg>
